<?xml version="1.0" encoding="UTF-8"?>
<map version="1.10" tiledversion="1.11.2" orientation="orthogonal" renderorder="right-down" width="13" height="8" tilewidth="16" tileheight="16" infinite="0" nextlayerid="4" nextobjectid="12">
 <editorsettings>
  <export target="../Night1.lua" format="lua"/>
 </editorsettings>
 <tileset firstgid="1" name="tileset" tilewidth="16" tileheight="16" tilecount="100" columns="10">
  <image source="../tileset.png" width="160" height="160"/>
 </tileset>
 <layer id="1" name="Tile Layer 1" width="13" height="8">
  <data encoding="csv">
0,0,0,0,0,0,0,0,0,0,0,0,0,
0,0,0,0,0,0,0,0,0,0,0,0,0,
0,0,0,0,0,0,0,0,0,0,0,0,0,
0,0,0,0,0,0,0,0,0,0,0,0,0,
0,0,0,0,0,0,0,0,0,0,0,0,0,
0,0,0,0,0,0,0,0,0,0,0,0,0,
0,0,0,0,0,0,0,0,0,0,0,0,0,
1,1,1,1,1,1,1,3,3,3,3,3,3
</data>
 </layer>
 <layer id="2" name="Tile Layer 2" width="13" height="8">
  <data encoding="csv">
0,0,0,0,0,0,0,0,0,0,0,0,0,
0,0,0,0,0,3,0,0,0,3,0,3,0,
0,0,0,0,0,3,0,3,0,0,0,0,3,
0,0,0,0,0,3,0,0,3,3,3,3,3,
0,0,0,0,3,0,3,0,0,0,0,0,0,
0,0,0,0,0,0,0,0,0,0,0,0,0,
0,0,0,0,0,0,0,0,0,0,0,0,0,
2,2,2,2,2,2,2,0,0,0,0,0,0
</data>
 </layer>
 <objectgroup color="#640000" id="3" name="solid">
  <object id="2" x="80.1347" y="79.9158" width="79.6968" height="16.2021">
   <properties>
    <property name="collidable" type="bool" value="true"/>
   </properties>
  </object>
  <object id="3" x="0.437916" y="112.32" width="207.562" height="15.9832">
   <properties>
    <property name="collidable" type="bool" value="true"/>
   </properties>
  </object>
  <object id="4" x="64.1516" y="64.5895" width="15.1074" height="13.7937"/>
  <object id="5" x="96.5558" y="64.3705" width="14.4505" height="15.3263"/>
  <object id="6" x="79.6968" y="16.4211" width="16.2021" height="45.5411"/>
  <object id="7" x="112.101" y="31.0905" width="15.9832" height="16.64"/>
  <object id="8" x="128.303" y="47.9495" width="80.1347" height="16.64"/>
  <object id="9" x="192.017" y="32.4042" width="16.2021" height="15.3263"/>
  <object id="10" x="144.286" y="16.4211" width="16.2021" height="15.7642"/>
  <object id="11" x="175.596" y="15.5453" width="16.4211" height="15.9832"/>
 </objectgroup>
</map>
